src/assets/whatsAppicon.svg

<svg width="32" height="32" viewBox="0 0 32 32" fill="none" xmlns="http://www.w3.org/2000/svg">
<path d="M21.7734 18.5764C22.8878 19.2477 23.1054 19.1977 23.1054 19.8777C23.1054 20.4989 21.6523 22.5108 20.0078 22.5121C17.6003 22.5107 14.9703 21.0295 12.9053 19.0208C10.8966 16.9558 9.41531 14.3258 9.41406 11.9183C9.41406 10.2727 11.4272 8.8208 12.0484 8.8208C12.7284 8.8208 12.6784 9.0383 13.3497 10.1527C13.7234 10.7727 14.6103 11.9383 14.4422 12.3733C14.2016 12.9927 12.7441 13.7208 12.7441 14.1646C12.7453 15.6439 16.2821 19.1808 17.7616 19.1821C18.204 19.1807 18.9321 17.7226 19.5528 17.4839C19.9878 17.3158 21.1534 18.2027 21.7734 18.5764Z" fill="white"/>
<path opacity="0.4" d="M24.4325 7.4135C29.1919 12.1735 29.2906 19.791 24.6531 24.4285C20.6138 28.4679 14.3132 28.9135 9.60938 25.8153L3.9375 28.2209L6.10813 22.3528C2.92563 17.6378 3.34438 11.2659 7.4175 7.19274C12.055 2.55537 19.6725 2.65412 24.4325 7.4135ZM23.1106 19.8772C23.1106 19.1972 22.8931 19.2472 21.7787 18.576C21.1587 18.2023 19.9931 17.3154 19.5581 17.4836C18.9374 17.7222 18.2093 19.1804 17.7669 19.1817C16.2874 19.1804 12.7507 15.6436 12.7494 14.1642C12.7494 13.7204 14.2069 12.9923 14.4475 12.3729C14.6156 11.9379 13.7287 10.7723 13.3551 10.1523C12.6838 9.03793 12.7338 8.82043 12.0538 8.82043C11.4326 8.82043 9.41944 10.2723 9.41944 11.9179C9.42075 14.3254 10.902 16.9554 12.9107 19.0204C14.9757 21.0292 17.6057 22.5104 20.0131 22.5117C21.6575 22.5104 23.1106 20.4985 23.1106 19.8772Z" fill="#FF0000"/>
<path d="M20.0083 23.137C20.0081 23.137 20.0078 23.137 20.0075 23.137C17.6123 23.1357 14.8648 21.7987 12.4695 19.4687C12.4654 19.4647 12.4613 19.4607 12.4573 19.4566C10.1273 17.0613 8.79031 14.3138 8.78906 11.9186C8.78906 11.0366 9.24081 10.1087 10.0611 9.3058C10.6255 8.7533 11.4589 8.1958 12.0484 8.1958C12.9562 8.1958 13.1978 8.6248 13.5634 9.27411C13.6528 9.43274 13.7539 9.61255 13.8851 9.83018C13.9582 9.95143 14.0585 10.1044 14.1648 10.2664C14.8344 11.2872 15.2561 12.0011 15.0252 12.5986C14.8446 13.0634 14.3664 13.4451 13.9041 13.8142C13.733 13.9509 13.4878 14.1466 13.3791 14.2649C13.463 14.7317 14.0744 15.7196 15.1405 16.7856C16.2054 17.8505 17.1922 18.4617 17.6601 18.5468C17.778 18.4381 17.9724 18.1944 18.1081 18.0244C18.4787 17.5602 18.8619 17.0801 19.3284 16.9007C19.4356 16.8592 19.5538 16.838 19.6789 16.838C20.2109 16.838 20.8354 17.2207 21.6596 17.7613C21.8216 17.8676 21.9746 17.9679 22.096 18.0412C22.3134 18.1722 22.4933 18.2734 22.6519 18.3628C23.3013 18.7285 23.7303 18.97 23.7303 19.8777C23.7303 20.4671 23.1725 21.3004 22.6197 21.8647C21.8167 22.6844 20.8893 23.1364 20.0083 23.137ZM13.3473 18.5788C15.4781 20.6492 17.9674 21.8858 20.0076 21.8871C21.2421 21.8859 22.4159 20.2851 22.4803 19.8666C22.4799 19.7811 22.4749 19.7362 22.4712 19.7149C22.4076 19.6596 22.2124 19.5497 22.0386 19.4519C21.8807 19.3629 21.6842 19.2523 21.4509 19.1118C21.3089 19.0262 21.1462 18.9195 20.9739 18.8064C20.6509 18.5946 20.0014 18.1685 19.7249 18.0972C19.5536 18.217 19.254 18.5924 19.085 18.8042C18.6561 19.3415 18.2858 19.8055 17.7634 19.8071C16.4915 19.8059 14.7577 18.1707 14.2565 17.6696C13.7553 17.1684 12.1201 15.4346 12.119 14.1651C12.119 13.6397 12.5848 13.2679 13.1241 12.8374C13.335 12.6691 13.7084 12.3709 13.8286 12.2006C13.7569 11.9237 13.3313 11.2748 13.1195 10.9519C13.0066 10.7797 12.8999 10.6171 12.8144 10.4753C12.6737 10.2418 12.5631 10.0453 12.4741 9.88743C12.3763 9.71368 12.2664 9.51849 12.2111 9.4548C12.1897 9.45124 12.1449 9.44618 12.0594 9.4458C11.6406 9.51011 10.039 10.6837 10.039 11.9183C10.0401 13.9583 11.2768 16.4478 13.3473 18.5788Z" fill="#B30000"/>
<path d="M3.93764 28.8464C3.77995 28.8464 3.62464 28.7867 3.50608 28.6736C3.32564 28.5014 3.26483 28.2385 3.35133 28.0046L5.41245 22.4325C3.90276 20.0697 3.19607 17.2597 3.41895 14.4826C3.65389 11.5556 4.91695 8.80993 6.97551 6.75137C9.29545 4.43143 12.4017 3.15381 15.7221 3.15381C19.1615 3.15381 22.4118 4.50981 24.8744 6.972C29.8698 11.9679 29.9687 19.9974 25.0951 24.8709C22.7754 27.1906 19.6697 28.4681 16.3503 28.4681C16.3499 28.4681 16.3497 28.4681 16.3493 28.4681C13.9428 28.4679 11.5993 27.7954 9.54995 26.5199L4.18151 28.7969C4.10283 28.8302 4.01989 28.8464 3.93764 28.8464ZM9.60932 25.1908C9.72982 25.1908 9.84958 25.2256 9.95314 25.2938C11.8641 26.5525 14.0759 27.2179 16.3494 27.2181C16.3496 27.2181 16.3501 27.2181 16.3503 27.2181C19.336 27.2181 22.1275 26.0707 24.2111 23.987C28.5975 19.6007 28.4985 12.3644 23.9905 7.85587C21.7641 5.62975 18.8277 4.40381 15.7221 4.40381C12.7356 4.40381 9.94326 5.55143 7.85945 7.63525C4.07776 11.4169 3.55907 17.4597 6.62614 22.0037C6.73876 22.1706 6.76414 22.3814 6.69426 22.5702L5.0257 27.081L9.36526 25.2404C9.4437 25.2072 9.5267 25.1908 9.60932 25.1908Z" fill="#B30000"/>
</svg>

<svg width="32" height="32" viewBox="0 0 32 32" fill="none" xmlns="http://www.w3.org/2000/svg">
    <path d="M21.775 18.576c1.115.672 1.332.622 1.332 1.302 0 .62-1.453 2.633-3.097 2.634-2.408-.001-5.038-1.483-7.103-3.491-2.008-2.065-3.49-4.695-3.491-7.103 0-1.645 2.013-3.097 2.634-3.097.68 0 .63.217 1.302 1.332.373.62 1.26 1.785 1.092 2.22-.24.62-1.698 1.348-1.698 1.792.001 1.479 3.538 5.016 5.018 5.017.442-.001 1.17-1.46 1.79-1.698.436-.168 1.601.719 2.221 1.092z" fill="#fff"/>
    <path opacity=".4" d="M24.43 7.413c4.76 4.76 4.859 12.378.221 17.015-4.04 4.04-10.34 4.485-15.044 1.387l-5.671 2.406 2.17-5.868c-3.182-4.715-2.764-11.087 1.31-15.16 4.637-4.638 12.255-4.539 17.014.22zM23.11 19.878c0-.68-.218-.63-1.332-1.301-.62-.374-1.786-1.26-2.22-1.092-.621.238-1.35 1.696-1.792 1.698-1.48-.002-5.016-3.538-5.018-5.018 0-.444 1.458-1.172 1.698-1.791.169-.435-.718-1.6-1.092-2.22-.671-1.115-.621-1.333-1.301-1.333-.621 0-2.635 1.452-2.635 3.098.002 2.407 1.483 5.037 3.492 7.102 2.065 2.01 4.695 3.49 7.102 3.492 1.645-.002 3.098-2.014 3.098-2.635z" fill="red"/>
    <path d="M20.01 23.137c-2.396-.001-5.143-1.338-7.539-3.668a.465.465 0 0 1-.012-.012c-2.33-2.396-3.667-5.143-3.668-7.538 0-.882.452-1.81 1.272-2.613.564-.553 1.398-1.11 1.987-1.11.908 0 1.15.429 1.515 1.078.09.159.19.339.322.556.073.121.173.274.28.436.67 1.021 1.091 1.735.86 2.333-.18.464-.659.846-1.121 1.215-.171.137-.416.333-.525.45.084.468.695 1.456 1.761 2.522 1.065 1.064 2.052 1.676 2.52 1.76.118-.108.312-.352.448-.522.37-.464.754-.944 1.22-1.123a.968.968 0 0 1 .35-.063c.533 0 1.157.383 1.982.923.162.107.315.207.436.28.217.131.397.232.556.322.65.366 1.078.607 1.078 1.515 0 .59-.558 1.422-1.11 1.987-.803.82-1.73 1.271-2.612 1.272zm-6.66-4.558c2.13 2.07 4.62 3.307 6.66 3.308 1.234-.001 2.408-1.602 2.472-2.02a1 1 0 0 0-.009-.152c-.063-.055-.259-.165-.432-.263-.158-.09-.355-.2-.588-.34a15.513 15.513 0 0 1-.477-.306c-.323-.211-.973-.637-1.25-.709-.17.12-.47.495-.639.707-.429.538-.8 1.002-1.322 1.003-1.271-.001-3.005-1.636-3.507-2.137-.5-.502-2.136-2.235-2.137-3.505 0-.525.466-.897 1.005-1.328.211-.168.584-.466.705-.636-.072-.277-.498-.926-.71-1.25-.113-.171-.22-.334-.305-.476-.14-.233-.251-.43-.34-.588a3.977 3.977 0 0 0-.263-.432.995.995 0 0 0-.152-.01c-.418.065-2.02 1.239-2.02 2.473.001 2.04 1.238 4.53 3.308 6.66z" fill="#004498"/>
    <path d="M3.936 28.846a.625.625 0 0 1-.587-.841l2.061-5.572a12.904 12.904 0 0 1-1.993-7.95A12.331 12.331 0 0 1 6.974 6.75c2.32-2.32 5.426-3.597 8.746-3.597 3.44 0 6.69 1.356 9.152 3.818 4.996 4.996 5.095 13.025.221 17.899-2.32 2.32-5.425 3.597-8.745 3.597a12.84 12.84 0 0 1-6.8-1.948L4.18 28.797a.625.625 0 0 1-.244.05zm5.671-3.655c.12 0 .24.035.344.103a11.602 11.602 0 0 0 6.396 1.924h.001c2.986 0 5.778-1.147 7.861-3.231 4.387-4.386 4.288-11.623-.22-16.131-2.227-2.226-5.163-3.452-8.269-3.452-2.986 0-5.779 1.147-7.863 3.231-3.781 3.782-4.3 9.825-1.233 14.369a.625.625 0 0 1 .068.566l-1.668 4.511 4.34-1.84a.626.626 0 0 1 .243-.05z" fill="#004498"/>
</svg>
